static/img/favicon.svg

<svg fill="none" height="148" viewBox="0 0 148 148" width="148" xmlns="http://www.w3.org/2000/svg"><rect fill="#ffbf00" height="148" rx="20" width="148"/><path d="m18.8462 77.0674c-.1127-3.3648.2022-6.4116.9446-9.1404.7413-2.7621 1.7459-5.1336 3.0136-7.1144 1.2999-2.0153 2.6988-3.5672 4.1965-4.6557 1.5299-1.1231 3.0111-1.7108 4.4435-1.7629.7661-.0279 1.3747.2168 1.8256.734.4842.5161.7386 1.1406.7631 1.8735.0156.4664-.2175.9752-.6993 1.5264-.4485.5501-1.2429 1.2294-2.3831 2.0381-1.692 1.2624-3.0465 2.646-4.0634 4.1506-.9835 1.5035-1.6767 3.2132-2.0795 5.1291-.3694 1.9147-.5112 4.1546-.4253 6.7199.087 2.5985.3989 4.9387.9355 7.0206.5688 2.0473 1.3969 3.8683 2.4842 5.4631 1.1206 1.5936 2.5177 2.977 4.1912 4.1502 1.0928.7608 1.8985 1.4152 2.4171 1.9634.5197.5814.7885 1.1387.8064 1.6717.0245.733-.203 1.4083-.6826 2.0262s-1.3023.948-2.4682.9905c-1.2658.0461-2.63-.3545-4.0925-1.2019-1.4625-.8473-2.8751-2.1968-4.2378-4.0484-1.3283-1.8195-2.4413-4.1806-3.339-7.0832-.8976-2.9025-1.4145-6.386-1.5506-10.4504zm24.5476-14.4028c1.066-.0389 1.7967.3682 2.1921 1.221.4288.8516.6716 2.127.7285 3.826.0134.3998-.0054.8341-.0564 1.3029-.0188.4343-.0721.8365-.1597 1.2066l-.1334-.9958c.7269-2.1945 1.9031-3.9218 3.5285-5.1818 1.6243-1.2933 3.3691-1.9739 5.2346-2.0418 2.0653-.0753 3.8003.4453 5.2051 1.5616 1.4381 1.115 2.5255 2.7098 3.262 4.7844.7698 2.0733 1.2027 4.5425 1.2986 7.4076.0591 1.7657.0344 3.5177-.0741 5.2562-.0764 1.7039-.2238 3.2769-.4423 4.7192-.1863 1.4077-.4144 2.5667-.684 3.4771-.3618 1.1473-.8497 2.0156-1.4637 2.605-.615.5561-1.3556.8499-2.2217.8815-.8661.0315-1.5429-.2607-2.0305-.8767-.4875-.616-.7491-1.4571-.7848-2.5231-.038-1.1327-.0004-2.5017.1126-4.1068.1119-1.6385.2065-3.293.284-4.9636.1097-1.7051.1416-3.2406.0959-4.6065-.1562-4.6641-1.7666-6.9403-4.8312-6.8287-1.6323.0594-2.9735.8421-4.0237 2.348-1.0513 1.4725-1.7155 3.5481-1.9927 6.2266-.0698.9031-.0824 2.021-.0378 3.3536.0446 1.3325.0893 2.6651.1339 3.9977.0768 1.2981.0803 2.3987.0105 3.3018-.0663 2.0037-.4014 3.4502-1.0053 4.3394-.5706.8881-1.3889 1.3515-2.4549 1.3903-1.2325.0449-2.1842-.4875-2.855-1.5972-.672-1.1429-1.0537-3.0803-1.1452-5.8121-.0468-1.3992-.066-2.9662-.0573-4.701.0086-1.7348.0338-3.4702.0758-5.2062.0741-1.7705.1704-3.3751.289-4.8137.2428-2.7106.6544-4.8603 1.2349-6.4492.5793-1.6221 1.5019-2.4562 2.7677-2.5023zm30.8727-8.3791c1.3325-.0485 2.2941.2834 2.8849.9957.6242.7111.9524 1.5497.9848 2.5158.0402 1.1993-.295 2.1455-1.0056 2.8385-.6783.6584-1.667 1.0113-2.9662 1.0586-1.2658.0461-2.2269-.2691-2.8832-.9457-.6575-.7099-1.0024-1.5479-1.0348-2.514-.0423-1.2659.3089-2.2294 1.0539-2.8902.745-.6609 1.7337-1.0138 2.9662-1.0587zm.673 11.1329c1.0659-.0389 1.9322.9303 2.5987 2.9073.6999 1.9758 1.1229 5.1459 1.269 9.5101.1796 5.3636-.074 9.2421-.761 11.6353-.6869 2.3933-1.8132 3.6184-3.3789 3.6754-1.1992.0437-2.1109-.7904-2.7352-2.5021-.6254-1.745-1.0112-4.7997-1.1574-9.1639-.1796-5.3637.1202-9.3605.8992-11.9906.8113-2.6646 1.8998-4.0218 3.2656-4.0715zm24.4659 26.7272c-3.6975.1346-6.664-.3077-8.8993-1.327-2.2354-1.0193-3.8707-2.5442-4.9059-4.5745s-1.6007-4.478-1.6967-7.3431c-.1216-3.6313.4415-6.7372 1.6891-9.3176 1.2799-2.615 3.0795-4.6485 5.3988-6.1005 2.3527-1.4532 5.0447-2.235 8.076-2.3454 3.5646-.1298 6.2076.6078 7.9286 2.2129 1.72 1.5718 2.625 3.6902 2.714 6.3554.072 2.1321-.433 4.0017-1.513 5.6088-1.048 1.5725-2.541 2.8109-4.478 3.7154-1.938.9044-4.1888 1.4033-6.7538 1.4967-1.4324.0522-2.8209-.0807-4.1657-.3986-1.3447-.318-2.5606-.774-3.6478-1.3682l1.1256-2.2424c-.0732.8032-.0964 1.6046-.0696 2.4041.0781 2.332.8673 3.9877 2.3676 4.9671 1.4991.9461 3.5978 1.37 6.296 1.2717 2.0987-.0764 3.7747-.3209 5.0287-.7335 1.253-.4125 2.307-.8011 3.162-1.1658.854-.398 1.697-.6122 2.53-.6425.467-.017.887.1011 1.263.3543.407.2186.735.5569.984 1.0148.282.4567.435 1.0182.457 1.6845.033.9994-.434 1.9838-1.402 2.953-.969.9359-2.426 1.7394-4.372 2.4107-1.913.6367-4.285 1.0066-7.1166 1.1097zm-3.4453-16.2353c2.3651-.0861 4.2469-.655 5.6459-1.7066s2.074-2.3103 2.025-3.7762c-.039-1.166-.471-2.1009-1.295-2.8047-.792-.7384-2.02-1.0772-3.6858-1.0165-1.5656.057-2.9713.4084-4.217 1.0541-1.2136.6113-2.1545 1.396-2.8228 2.3543s-.984 1.9871-.9472 3.0865c.0323.9661.5071 1.6993 1.4244 2.1996.9494.4658 2.2403.6689 3.8725.6095zm34.1519-1.8441c.111 3.3315-.204 6.3783-.945 9.1404s-1.762 5.1509-3.062 7.1662c-1.268 1.9807-2.667 3.516-4.198 4.6058-1.497 1.1218-2.961 1.7089-4.394 1.761-.732.0267-1.341-.218-1.825-.734-.484-.5161-.739-1.1406-.763-1.8735-.016-.4664.217-.9752.699-1.5264.482-.5513 1.276-1.2306 2.383-2.0381 1.725-1.2636 3.08-2.6472 4.063-4.1506.984-1.5035 1.66-3.2125 2.03-5.1273.402-1.9492.56-4.1898.475-6.7217-.087-2.5985-.415-4.9214-.984-6.9688-.536-2.0818-1.348-3.9201-2.435-5.5149-1.088-1.5949-2.485-2.9783-4.192-4.1502-1.059-.762-1.865-1.4164-2.417-1.9634-.519-.5814-.788-1.1387-.806-1.6717-.026-.7663.202-1.4417.682-2.0262.513-.6191 1.336-.9492 2.469-.9905 1.265-.0461 2.63.3545 4.092 1.2019 1.463.8473 2.859 2.1974 4.188 4.0502 1.362 1.8184 2.491 4.1788 3.389 7.0814s1.414 6.386 1.551 10.4504z" fill="#fff"/></svg>

<svg width="148" height="148" viewBox="0 0 148 148" fill="none" xmlns="http://www.w3.org/2000/svg">
<rect width="148" height="148" rx="20" fill="#FFBF00"/>
<path d="M18.8462 77.0674C18.7335 73.7026 19.0484 70.6558 19.7908 67.927C20.5321 65.1649 21.5367 62.7934 22.8044 60.8126C24.1043 58.7973 25.5032 57.2454 27.0009 56.1569C28.5308 55.0338 30.012 54.4461 31.4444 54.394C32.2105 54.3661 32.8191 54.6108 33.27 55.128C33.7542 55.6441 34.0086 56.2686 34.0331 57.0015C34.0487 57.4679 33.8156 57.9767 33.3338 58.5279C32.8853 59.078 32.0909 59.7573 30.9507 60.566C29.2587 61.8284 27.9042 63.212 26.8873 64.7166C25.9038 66.2201 25.2106 67.9298 24.8078 69.8457C24.4384 71.7604 24.2966 74.0003 24.3825 76.5656C24.4695 79.1641 24.7814 81.5043 25.318 83.5862C25.8868 85.6335 26.7149 87.4545 27.8022 89.0493C28.9228 90.6429 30.3199 92.0263 31.9934 93.1995C33.0862 93.9603 33.8919 94.6147 34.4105 95.1629C34.9302 95.7443 35.199 96.3016 35.2169 96.8346C35.2414 97.5676 35.0139 98.2429 34.5343 98.8608C34.0547 99.4787 33.232 99.8088 32.0661 99.8513C30.8003 99.8974 29.4361 99.4968 27.9736 98.6494C26.5111 97.8021 25.0985 96.4526 23.7358 94.601C22.4075 92.7815 21.2945 90.4204 20.3968 87.5178C19.4992 84.6153 18.9823 81.1318 18.8462 77.0674ZM43.3938 62.6646C44.4598 62.6257 45.1905 63.0328 45.5859 63.8856C46.0147 64.7372 46.2575 66.0126 46.3144 67.7116C46.3278 68.1114 46.309 68.5457 46.258 69.0145C46.2392 69.4488 46.1859 69.851 46.0983 70.2211L45.9649 69.2253C46.6918 67.0308 47.868 65.3035 49.4934 64.0435C51.1177 62.7502 52.8625 62.0696 54.728 62.0017C56.7933 61.9264 58.5283 62.447 59.9331 63.5633C61.3712 64.6783 62.4586 66.2731 63.1951 68.3477C63.9649 70.421 64.3978 72.8902 64.4937 75.7553C64.5528 77.521 64.5281 79.273 64.4196 81.0115C64.3432 82.7154 64.1958 84.2884 63.9773 85.7307C63.791 87.1384 63.5629 88.2974 63.2933 89.2078C62.9315 90.3551 62.4436 91.2234 61.8296 91.8128C61.2146 92.3689 60.474 92.6627 59.6079 92.6943C58.7418 92.7258 58.065 92.4336 57.5774 91.8176C57.0899 91.2016 56.8283 90.3605 56.7926 89.2945C56.7546 88.1618 56.7922 86.7928 56.9052 85.1877C57.0171 83.5492 57.1117 81.8947 57.1892 80.2241C57.2989 78.519 57.3308 76.9835 57.2851 75.6176C57.1289 70.9535 55.5185 68.6773 52.4539 68.7889C50.8216 68.8483 49.4804 69.631 48.4302 71.1369C47.3789 72.6094 46.7147 74.685 46.4375 77.3635C46.3677 78.2666 46.3551 79.3845 46.3997 80.7171C46.4443 82.0496 46.489 83.3822 46.5336 84.7148C46.6104 86.0129 46.6139 87.1135 46.5441 88.0166C46.4778 90.0203 46.1427 91.4668 45.5388 92.356C44.9682 93.2441 44.1499 93.7075 43.0839 93.7463C41.8514 93.7912 40.8997 93.2588 40.2289 92.1491C39.5569 91.0062 39.1752 89.0688 39.0837 86.337C39.0369 84.9378 39.0177 83.3708 39.0264 81.636C39.035 79.9012 39.0602 78.1658 39.1022 76.4298C39.1763 74.6593 39.2726 73.0547 39.3912 71.6161C39.634 68.9055 40.0456 66.7558 40.6261 65.1669C41.2054 63.5448 42.128 62.7107 43.3938 62.6646ZM74.2665 54.2855C75.599 54.237 76.5606 54.5689 77.1514 55.2812C77.7756 55.9923 78.1038 56.8309 78.1362 57.797C78.1764 58.9963 77.8412 59.9425 77.1306 60.6355C76.4523 61.2939 75.4636 61.6468 74.1644 61.6941C72.8986 61.7402 71.9375 61.425 71.2812 60.7484C70.6237 60.0385 70.2788 59.2005 70.2464 58.2344C70.2041 56.9685 70.5553 56.005 71.3003 55.3442C72.0453 54.6833 73.034 54.3304 74.2665 54.2855ZM74.9395 65.4184C76.0054 65.3795 76.8717 66.3487 77.5382 68.3257C78.2381 70.3015 78.6611 73.4716 78.8072 77.8358C78.9868 83.1994 78.7332 87.0779 78.0462 89.4711C77.3593 91.8644 76.233 93.0895 74.6673 93.1465C73.4681 93.1902 72.5564 92.3561 71.9321 90.6444C71.3067 88.8994 70.9209 85.8447 70.7747 81.4805C70.5951 76.1168 70.8949 72.12 71.6739 69.4899C72.4852 66.8253 73.5737 65.4681 74.9395 65.4184ZM99.4054 92.1456C95.7079 92.2802 92.7414 91.8379 90.5061 90.8186C88.2707 89.7993 86.6354 88.2744 85.6002 86.2441C84.565 84.2138 83.9995 81.7661 83.9035 78.901C83.7819 75.2697 84.345 72.1638 85.5926 69.5834C86.8725 66.9684 88.6721 64.9349 90.9914 63.4829C93.3441 62.0297 96.0361 61.2479 99.0674 61.1375C102.632 61.0077 105.275 61.7453 106.996 63.3504C108.716 64.9222 109.621 67.0406 109.71 69.7058C109.782 71.8379 109.277 73.7075 108.197 75.3146C107.149 76.8871 105.656 78.1255 103.719 79.03C101.781 79.9344 99.5302 80.4333 96.9652 80.5267C95.5328 80.5789 94.1443 80.446 92.7995 80.1281C91.4548 79.8101 90.2389 79.3541 89.1517 78.7599L90.2773 76.5175C90.2041 77.3207 90.1809 78.1221 90.2077 78.9216C90.2858 81.2536 91.075 82.9093 92.5753 83.8887C94.0744 84.8348 96.1731 85.2587 98.8713 85.1604C100.97 85.084 102.646 84.8395 103.9 84.4269C105.153 84.0144 106.207 83.6258 107.062 83.2611C107.916 82.8631 108.759 82.6489 109.592 82.6186C110.059 82.6016 110.479 82.7197 110.855 82.9729C111.262 83.1915 111.59 83.5298 111.839 83.9877C112.121 84.4444 112.274 85.0059 112.296 85.6722C112.329 86.6716 111.862 87.656 110.894 88.6252C109.925 89.5611 108.468 90.3646 106.522 91.0359C104.609 91.6726 102.237 92.0425 99.4054 92.1456ZM95.9601 75.9103C98.3252 75.8242 100.207 75.2553 101.606 74.2037C103.005 73.1521 103.68 71.8934 103.631 70.4275C103.592 69.2615 103.16 68.3266 102.336 67.6228C101.544 66.8844 100.316 66.5456 98.6502 66.6063C97.0846 66.6633 95.6789 67.0147 94.4332 67.6604C93.2196 68.2717 92.2787 69.0564 91.6104 70.0147C90.9421 70.973 90.6264 72.0018 90.6632 73.1012C90.6955 74.0673 91.1703 74.8005 92.0876 75.3008C93.037 75.7666 94.3279 75.9697 95.9601 75.9103ZM130.112 74.0662C130.223 77.3977 129.908 80.4445 129.167 83.2066C128.426 85.9687 127.405 88.3575 126.105 90.3728C124.837 92.3535 123.438 93.8888 121.907 94.9786C120.41 96.1004 118.946 96.6875 117.513 96.7396C116.781 96.7663 116.172 96.5216 115.688 96.0056C115.204 95.4895 114.949 94.865 114.925 94.1321C114.909 93.6657 115.142 93.1569 115.624 92.6057C116.106 92.0544 116.9 91.3751 118.007 90.5676C119.732 89.304 121.087 87.9204 122.07 86.417C123.054 84.9135 123.73 83.2045 124.1 81.2897C124.502 79.3405 124.66 77.0999 124.575 74.568C124.488 71.9695 124.16 69.6466 123.591 67.5992C123.055 65.5174 122.243 63.6791 121.156 62.0843C120.068 60.4894 118.671 59.106 116.964 57.9341C115.905 57.1721 115.099 56.5177 114.547 55.9707C114.028 55.3893 113.759 54.832 113.741 54.299C113.715 53.5327 113.943 52.8573 114.423 52.2728C114.936 51.6537 115.759 51.3236 116.892 51.2823C118.157 51.2362 119.522 51.6368 120.984 52.4842C122.447 53.3315 123.843 54.6816 125.172 56.5344C126.534 58.3528 127.663 60.7132 128.561 63.6158C129.459 66.5184 129.975 70.0018 130.112 74.0662Z" fill="#714204"/>
</svg>
